lg/traackr.svg

<svg viewBox="0 0 512 120" version="1.1" xmlns="http://www.w3.org/2000/svg" preserveAspectRatio="xMidYMid" height="1em" width="1em">
  <g>
    <path d="M387.034114,39.2822214 C394.73628,39.2822214 402.546735,42.0670904 406.826134,46.1934804 L396.660743,57.5387635 C394.629604,55.0631448 390.883579,53.4145284 387.355755,53.4145284 C380.078677,53.4145284 375.050398,59.6022279 375.050398,66.618007 C375.050398,73.7345352 379.865864,79.7169658 387.56803,79.7169658 C391.099086,79.7169658 394.950706,78.3754444 397.090677,75.9003645 L406.826134,87.3501677 C402.437904,91.4770968 394.950706,93.9516377 387.140251,93.9516377 C370.34322,93.9516377 357.291672,83.6386257 357.291672,66.618007 C357.291672,49.8031963 370.34322,39.2822214 387.034114,39.2822214 Z M265.678807,39.2822214 C283.545823,39.2822214 290.178002,47.7397319 290.178002,66.4105832 L290.178002,92.30356 L274.131468,92.30356 L274.131468,86.8356486 L273.810365,86.8356486 C271.134865,91.0644038 265.144892,93.5400225 258.725524,93.5400225 C250.166187,93.5400225 239.360745,89.5159973 239.360745,77.4487709 C239.360745,62.5939819 258.083318,60.1189023 273.595399,60.1189023 L273.595399,59.2945941 C273.595399,54.2388366 269.42483,51.8661219 263.968771,51.8661219 C258.940491,51.8661219 254.124483,54.2388366 250.808394,57.1266092 L241.928493,47.9471557 C248.241185,42.1694553 257.013334,39.2822214 265.678807,39.2822214 Z M324.772388,39.2822214 C342.639406,39.2822214 349.271046,47.7397319 349.271046,66.4105832 L349.271046,92.30356 L333.225051,92.30356 L333.225051,86.8356486 L332.903407,86.8356486 C330.227908,91.0644038 324.237933,93.5400225 317.818567,93.5400225 C309.259769,93.5400225 298.454327,89.5159973 298.454327,77.4487709 C298.454327,62.5939819 317.17636,60.1189023 332.68898,60.1189023 L332.68898,59.2945941 C332.68898,54.2388366 328.517874,51.8661219 323.062351,51.8661219 C318.034072,51.8661219 313.218065,54.2388366 309.901975,57.1266092 L301.021535,47.9471557 C307.334766,42.1694553 316.106915,39.2822214 324.772388,39.2822214 Z M176.393993,27.4195096 L176.393993,40.9327773 L188.911626,40.9327773 L188.911626,53.6195818 L176.393993,53.6195818 L176.393993,73.2198002 C176.393993,78.0681335 178.000047,80.4386933 183.028866,80.4386933 C184.526561,80.4386933 186.350537,80.201511 187.643946,79.7975278 L188.163283,79.614385 L188.37825,91.9935554 C185.917178,92.8173249 181.958882,93.539807 178.212859,93.539807 C164.294487,93.539807 159.487172,86.629305 159.284736,75.9970237 L159.278013,75.2827262 L159.278013,53.6195818 L150.718676,53.6195818 L150.718676,41.5836036 C154.235186,41.3503192 157.498477,40.621372 159.385227,38.6446486 C161.657631,36.4752833 162.281702,32.4880647 162.398335,28.3867862 L162.412001,27.4222035 L162.412001,27.4222035 L176.393993,27.4195096 Z M431.533585,19.2557616 L431.533585,62.9546301 L431.852956,62.9546301 L448.863448,40.9342199 L470.154791,40.9342199 L449.611871,65.3257115 L471.009671,92.3044239 L449.292501,92.3044239 L431.852956,68.8355572 L431.533585,68.8355572 L431.533585,92.3044239 L413.881126,92.3044239 L413.881126,19.2557616 L431.533585,19.2557616 Z M231.879098,39.488891 C233.270185,39.488891 234.767409,39.5917949 235.622427,39.901584 L234.873545,54.753679 C233.270185,54.3415251 231.772961,54.2391599 230.381873,54.2391599 C220.96698,54.2391599 217.863702,61.664938 217.863702,65.8963873 L217.863702,92.3033445 L200.320483,92.3033445 L200.320483,40.933316 L217.221496,40.933316 L217.221496,48.3590945 L217.436462,48.3590945 C220.109807,43.0986069 225.353054,39.488891 231.879098,39.488891 Z M508.256133,39.488891 C509.647219,39.488891 511.144982,39.5917949 512,39.901584 L511.251119,54.753679 C509.647219,54.3415251 508.149996,54.2391599 506.758907,54.2391599 C497.344552,54.2391599 494.241275,61.664938 494.241275,65.8963873 L494.241275,92.3033445 L476.697518,92.3033445 L476.697518,40.933316 L493.598531,40.933316 L493.598531,48.3590945 L493.814035,48.3590945 C496.487382,43.0986069 501.730627,39.488891 508.256133,39.488891 Z M274.131468,71.6716092 L274.131468,69.9179339 L271.885363,69.9179339 C264.181044,69.9179339 255.515571,70.847301 255.515571,76.9320968 C255.515571,80.853218 259.580542,82.1920454 263.111598,82.1920454 C270.279848,82.1920454 274.131468,78.1701755 274.131468,71.6716092 Z M333.225051,71.6716092 L333.225051,69.9179339 L330.978944,69.9179339 C323.274626,69.9179339 314.609152,70.847301 314.609152,76.9320968 C314.609152,80.853218 318.673584,82.1920454 322.204641,82.1920454 C329.372889,82.1920454 333.225051,78.1701755 333.225051,71.6716092 Z M53.1529588,78.0814951 C57.5352614,78.138604 61.918103,78.6870651 64.2315539,81.1120401 C66.6559898,83.4249519 67.2615601,87.8072548 67.2615601,92.1895577 L67.2615601,105.203931 L67.2615601,105.203931 C67.2330058,109.586772 66.6554511,113.968536 64.2315539,116.282526 C61.918103,118.706423 57.5352614,119.254884 53.1529588,119.311993 C48.7701171,119.254884 44.3872754,118.706423 42.0749023,116.282526 C39.8014883,114.11316 39.1522572,110.126415 39.0560117,106.025196 L39.0298106,101.106953 C39.025725,98.3656388 39.0287892,95.2553443 39.0390032,93.0675016 L39.0438184,92.1900965 C39.0729117,87.8072548 39.6499274,83.4249519 42.0749023,81.1120401 C44.3878142,78.6870651 48.7701171,78.138604 53.1529588,78.0814951 Z M92.1904197,39.5880235 C96.5727227,39.6456711 100.955564,40.1941325 103.269015,42.6185687 C105.692912,44.9314805 106.299021,49.3137835 106.299021,53.6966251 L106.299021,66.7104589 L106.299021,66.7104589 C106.269928,71.0933005 105.692912,75.4756035 103.269015,77.7895928 C100.955564,80.2134902 96.5727227,80.7614126 92.1904197,80.8190605 C87.807578,80.7614126 83.4247364,80.2134902 81.1118246,77.7895928 C78.8389156,75.6202278 78.1897161,71.633009 78.0934728,67.5317305 L78.0669125,62.6134813 C78.0627221,59.8721675 78.0658649,56.761873 78.0763409,54.5740303 L78.0812796,53.6966251 C78.1103726,49.3137835 78.6873884,44.9314805 81.1118246,42.6185687 C83.4247364,40.1941325 87.807578,39.6456711 92.1904197,39.5880235 Z M53.1497799,39.0405859 C57.5320828,39.0976948 61.9149245,39.646695 64.2283751,42.0711309 C66.6528113,44.384043 67.2007336,48.7668844 67.2583816,53.1491873 C67.2007336,57.5314902 66.6522725,61.9143319 64.2283751,64.2283212 C61.9143858,66.6522186 57.5320828,67.2006798 53.1492412,67.257789 C48.7669382,67.2006798 44.3840969,66.6522186 42.0717235,64.2283212 C39.6467489,61.9143319 39.0982874,57.532029 39.0406398,53.1491873 C39.0982874,48.7668844 39.6467489,44.384043 42.0717235,42.0711309 C44.3840969,39.646695 48.7669382,39.0982335 53.1497799,39.0405859 Z M131.231275,0 C135.613578,0.057108938 139.996419,0.605570246 142.30987,3.03054506 C144.734306,5.34345703 145.282229,9.72575987 145.339876,14.1086015 C145.282229,18.4909043 144.733767,22.8737459 142.30987,25.1871967 C139.995881,27.6116327 135.613578,28.160094 131.230736,28.217203 C126.848433,28.160094 122.465592,27.6116327 120.153219,25.1871967 C117.728244,22.8742847 117.179783,18.4914431 117.122135,14.1086015 C117.179783,9.72575987 117.728244,5.34345703 120.153219,3.03054506 C122.465592,0.605570246 126.848433,0.057108938 131.231275,0 Z M92.1901503,0 C96.572992,0.057108938 100.955295,0.605570246 103.269284,3.03054506 C105.693182,5.34345703 106.241643,9.72575987 106.299291,14.1086015 C106.241643,18.4909043 105.693182,22.8737459 103.269284,25.1871967 C100.955295,27.6116327 96.5724533,28.160094 92.1901503,28.217203 C87.8073087,28.160094 83.4250057,27.6116327 81.1120939,25.1871967 C78.6876577,22.8742847 78.1386579,18.4914431 78.081549,14.1086015 C78.1386579,9.72575987 78.687119,5.34345703 81.1120939,3.03054506 C83.4250057,0.605570246 87.8078474,0.057108938 92.1901503,0 Z M53.1497799,0 C57.5320828,0.057108938 61.9149245,0.605570246 64.2283751,3.03054506 C66.6528113,5.34345703 67.2007336,9.72575987 67.2583816,14.1086015 C67.2007336,18.4909043 66.6522725,22.8737459 64.2283751,25.1871967 C61.9143858,27.6116327 57.5320828,28.160094 53.1492412,28.217203 C48.7669382,28.160094 44.3840969,27.6116327 42.0717235,25.1871967 C39.6467489,22.8742847 39.0982874,18.4914431 39.0406398,14.1086015 C39.0982874,9.72575987 39.6467489,5.34345703 42.0717235,3.03054506 C44.3840969,0.605570246 48.7669382,0.057108938 53.1497799,0 Z M14.1086015,0 C18.4914431,0.057108938 22.8737459,0.605570246 25.1877354,3.03054506 C27.6116327,5.34345703 28.160094,9.72575987 28.2177417,14.1086015 C28.160094,18.4909043 27.6116327,22.8737459 25.1877354,25.1871967 C22.8737459,27.6116327 18.4909043,28.160094 14.1086015,28.217203 C9.72575987,28.160094 5.34345703,27.6116327 3.03054506,25.1871967 C0.60610901,22.8742847 0.057108938,18.4914431 4.26325641e-14,14.1086015 C0.057108938,9.72575987 0.605570246,5.34345703 3.03054506,3.03054506 C5.34345703,0.605570246 9.72629864,0.057108938 14.1086015,0 Z" fill="#250E62" fill-rule="nonzero"/>
  </g>
</svg>

<svg viewBox="0 0 512 120" xmlns="http://www.w3.org/2000/svg" preserveAspectRatio="xMidYMid" height="1em" width="1em">
  <path d="M387.034 39.282c7.702 0 15.513 2.785 19.792 6.911L396.661 57.54c-2.031-2.476-5.777-4.124-9.305-4.124-7.277 0-12.306 6.187-12.306 13.203 0 7.117 4.816 13.099 12.518 13.099 3.531 0 7.383-1.342 9.523-3.817l9.735 11.45c-4.388 4.127-11.875 6.602-19.686 6.602-16.797 0-29.848-10.313-29.848-27.334 0-16.815 13.051-27.336 29.742-27.336Zm-121.355 0c17.867 0 24.499 8.458 24.499 27.129v25.893h-16.047v-5.468h-.32c-2.676 4.228-8.666 6.704-15.085 6.704-8.56 0-19.365-4.024-19.365-16.091 0-14.855 18.722-17.33 34.234-17.33v-.824c0-5.056-4.17-7.429-9.626-7.429-5.029 0-9.845 2.373-13.16 5.26l-8.88-9.179c6.312-5.778 15.084-8.665 23.75-8.665Zm59.093 0c17.867 0 24.499 8.458 24.499 27.129v25.893h-16.046v-5.468h-.322c-2.675 4.228-8.665 6.704-15.084 6.704-8.56 0-19.365-4.024-19.365-16.091 0-14.855 18.722-17.33 34.235-17.33v-.824c0-5.056-4.171-7.429-9.627-7.429-5.028 0-9.844 2.373-13.16 5.26l-8.88-9.179c6.313-5.778 15.085-8.665 23.75-8.665ZM176.394 27.42v13.513h12.518V53.62h-12.518v19.6c0 4.848 1.606 7.219 6.635 7.219 1.498 0 3.322-.237 4.615-.641l.52-.184.214 12.38c-2.46.823-6.42 1.546-10.165 1.546-13.919 0-18.726-6.91-18.928-17.543l-.007-.714V53.62h-8.56V41.584c3.517-.234 6.78-.963 8.667-2.94 2.273-2.169 2.897-6.156 3.013-10.257l.014-.965 13.982-.002Zm255.14-8.164v43.699h.319l17.01-22.02h21.292l-20.543 24.39 21.398 26.98h-21.717l-17.44-23.47h-.32v23.47h-17.652v-73.05h17.653ZM231.879 39.489c1.391 0 2.888.103 3.743.413l-.748 14.852c-1.604-.412-3.101-.515-4.492-.515-9.415 0-12.518 7.426-12.518 11.657v26.407H200.32v-51.37h16.901v7.426h.215c2.674-5.26 7.917-8.87 14.443-8.87Zm276.377 0c1.391 0 2.889.103 3.744.413l-.749 14.852c-1.604-.412-3.101-.515-4.492-.515-9.414 0-12.518 7.426-12.518 11.657v26.407h-17.543v-51.37h16.9v7.426h.216c2.673-5.26 7.917-8.87 14.442-8.87ZM274.131 71.672v-1.754h-2.246c-7.704 0-16.37.93-16.37 7.014 0 3.921 4.066 5.26 7.597 5.26 7.168 0 11.02-4.022 11.02-10.52Zm59.094 0v-1.754h-2.246c-7.704 0-16.37.93-16.37 7.014 0 3.921 4.065 5.26 7.596 5.26 7.168 0 11.02-4.022 11.02-10.52Zm-280.072 6.41c4.382.057 8.765.605 11.079 3.03 2.424 2.313 3.03 6.695 3.03 11.078v13.014c-.029 4.383-.607 8.765-3.03 11.079-2.314 2.423-6.697 2.972-11.079 3.029-4.383-.057-8.766-.606-11.078-3.03-2.274-2.169-2.923-6.156-3.019-10.257l-.026-4.918c-.004-2.741-.001-5.852.009-8.04l.005-.877c.029-4.383.606-8.765 3.03-11.078 2.314-2.425 6.696-2.973 11.079-3.03ZM92.19 39.587c4.383.058 8.766.606 11.079 3.03 2.424 2.313 3.03 6.696 3.03 11.079V66.71c-.03 4.383-.606 8.766-3.03 11.08-2.313 2.423-6.696 2.971-11.079 3.03-4.382-.059-8.765-.607-11.078-3.03-2.273-2.17-2.922-6.157-3.019-10.258l-.026-4.919c-.004-2.74-.001-5.851.01-8.039l.004-.877c.03-4.383.606-8.766 3.03-11.078 2.314-2.425 6.697-2.973 11.08-3.031Zm-39.04-.547c4.382.057 8.765.606 11.078 3.03 2.425 2.313 2.973 6.696 3.03 11.078-.057 4.382-.606 8.765-3.03 11.08-2.314 2.423-6.696 2.972-11.079 3.029-4.382-.057-8.765-.606-11.077-3.03-2.425-2.314-2.974-6.696-3.031-11.079.057-4.382.606-8.765 3.03-11.078 2.313-2.424 6.696-2.973 11.079-3.03ZM131.23 0c4.383.057 8.765.606 11.079 3.03 2.424 2.313 2.972 6.696 3.03 11.079-.058 4.382-.606 8.765-3.03 11.078-2.314 2.425-6.696 2.973-11.08 3.03-4.382-.057-8.764-.605-11.077-3.03-2.425-2.313-2.973-6.696-3.03-11.078.057-4.383.605-8.766 3.03-11.078C122.466.606 126.848.057 131.231 0ZM92.19 0c4.382.057 8.764.606 11.078 3.03 2.424 2.313 2.973 6.696 3.03 11.079-.057 4.382-.606 8.765-3.03 11.078-2.314 2.425-6.697 2.973-11.079 3.03-4.383-.057-8.765-.605-11.078-3.03-2.424-2.313-2.973-6.696-3.03-11.078.057-4.383.605-8.766 3.03-11.078C83.425.606 87.808.057 92.19 0ZM53.15 0c4.382.057 8.765.606 11.078 3.03 2.425 2.313 2.973 6.696 3.03 11.079-.057 4.382-.606 8.765-3.03 11.078-2.314 2.425-6.696 2.973-11.079 3.03-4.382-.057-8.765-.605-11.077-3.03-2.425-2.313-2.974-6.696-3.031-11.078.057-4.383.606-8.766 3.03-11.078C44.385.606 48.768.057 53.15 0ZM14.109 0c4.382.057 8.765.606 11.079 3.03 2.424 2.313 2.972 6.696 3.03 11.079-.058 4.382-.606 8.765-3.03 11.078-2.314 2.425-6.697 2.973-11.08 3.03-4.382-.057-8.765-.605-11.077-3.03C.606 22.874.057 18.491 0 14.11.057 9.726.606 5.343 3.03 3.03 5.344.606 9.727.057 14.11 0Z" fill="#250E62"/>
</svg>
